dist/images/apic-logo.svg

<?xml version="1.0" encoding="UTF-8"?>
<svg width="73px" height="73px" viewBox="0 0 73 73" version="1.1" xmlns="http://www.w3.org/2000/svg" xmlns:xlink="http://www.w3.org/1999/xlink">
    <!-- Generator: Sketch 52.2 (67145) - http://www.bohemiancoding.com/sketch -->
    <title>Combined Shape</title>
    <desc>Created with Sketch.</desc>
    <defs>
        <linearGradient x1="-77.3276909%" y1="50%" x2="114.806769%" y2="50%" id="linearGradient-1">
            <stop stop-color="#00DDBD" offset="0%"></stop>
            <stop stop-color="#5392FF" offset="100%"></stop>
        </linearGradient>
    </defs>
    <g id="Page-1-Copy" stroke="none" stroke-width="1" fill="none" fill-rule="evenodd">
        <g id="Artboard-Copy-15" transform="translate(-56.000000, -56.000000)" fill="url(#linearGradient-1)">
            <g id="APIC-Logo" transform="translate(56.000000, 56.000000)">
                <path d="M60.6560254,53.8253219 L65.9996436,40.8896363 C66.3523328,41.0893424 66.7268805,41.2470943 67.1157471,41.3597164 L61.7721289,54.2924078 C61.4193167,54.0937125 61.0447709,53.9369662 60.6560254,53.8253219 Z M41.2808252,65.7060719 L54.1804443,60.3325875 C54.290293,60.7245494 54.4449662,61.1023443 54.6413574,61.4583844 L41.7427295,66.8308707 C41.6325357,66.4391939 41.4775288,66.0617313 41.2808252,65.7060719 Z M34.7893848,63.36665 C34.41279,63.5169167 34.0548631,63.7108469 33.7228418,63.9445191 L28.0868164,53.3143219 C28.4629965,53.1654919 28.8206075,52.9728924 29.1523682,52.7404449 L34.7893848,63.36665 Z M54.4391504,56.7396187 C54.2725959,57.1108048 54.1498389,57.5003739 54.0733936,57.9003473 L30.9474512,50.5637047 C31.1140057,50.1925186 31.2367627,49.8029495 31.313208,49.4029762 L54.4391504,56.7396187 Z M21.8481348,51.3860953 C22.0762473,51.7208531 22.3420012,52.0279582 22.6401123,52.3013043 L18.5117188,55.9162301 C18.2830393,55.5816194 18.0169756,55.2745405 17.71875,55.0010211 L21.8481348,51.3860953 Z M9.16757324,39.4015484 C9.40835079,39.07423 9.61058902,38.7198818 9.77022949,38.3456148 L21.9472559,45.2990074 C21.7063344,45.625874 21.5040835,45.9799093 21.3445996,46.353943 L9.16757324,39.4015484 Z M22.2545312,20.4396558 L17.9695264,17.1870211 C18.2484504,16.8920703 18.4928913,16.5659105 18.6980664,16.2149234 L22.9850537,19.4695543 C22.7177197,19.7740096 22.4735225,20.0982927 22.2545312,20.4396558 Z M21.5121143,27.7273941 C21.6562245,28.1067006 21.8288658,28.4743835 22.0285352,28.8272418 L9.90404297,34.601941 C9.77394111,34.2168819 9.59962924,33.8484365 9.38464844,33.5040894 L21.5121143,27.7273941 Z M36.3475684,21.4396988 L54.1566553,14.7897125 C54.2520061,15.185194 54.3930593,15.5680613 54.5769287,15.9304801 L36.7708154,22.5794683 C36.6586778,22.189276 36.5171862,21.8082508 36.3475684,21.4396988 Z M34.4008301,8.99804647 C34.7593876,9.1863911 35.1386355,9.33176717 35.5308105,9.43119881 L32.4649951,17.4904273 C32.1014356,17.3142776 31.7249929,17.1664658 31.3389795,17.0482926 L34.4008301,8.99804647 Z M57.6189551,53.871232 C57.2344636,53.9982015 56.8659097,54.1696825 56.5206934,54.382232 L52.9632373,46.4786988 C53.3400316,46.3342278 53.7080741,46.1675998 54.0654639,45.9796754 L57.6189551,53.871232 Z M35.6675977,29.4120973 C35.8954776,29.0764354 36.0976096,28.7237682 36.2722363,28.3571617 L40.4680322,30.8153512 C40.2462096,31.1548122 40.0443178,31.5070602 39.8633936,31.8702867 L35.6675977,29.4120973 Z M31.0792822,46.5834937 C30.9397293,46.2009603 30.756797,45.8359216 30.5341162,45.4956226 L39.6027051,40.861691 C39.7660086,41.2328466 39.9506879,41.5940885 40.1558008,41.9435738 L31.0792822,46.5834937 Z M63.4066357,37.2477633 L59.6469727,37.2477633 C59.6588672,37.0451598 59.6777002,36.8485445 59.6777002,36.6389547 C59.6777002,36.4293648 59.6588672,36.2297555 59.6469727,36.0301461 L63.3293213,36.0301461 C63.3243652,36.1169762 63.3154443,36.2028082 63.3154443,36.2906363 C63.3165366,36.6118238 63.3470631,36.9322246 63.4066357,37.2477633 Z M57.7091553,18.5842867 L53.9445361,27.2433414 C53.584831,27.0595059 53.2148154,26.8968826 52.8363623,26.7562945 L56.6029639,18.0902535 C56.951433,18.2975412 57.3226556,18.463332 57.7091553,18.5842867 Z M27.3999072,43.2849488 C27.0071697,43.1887558 26.6047189,43.1385211 26.200542,43.1352418 L27.455415,32.7785094 C27.8519061,32.8544322 28.2534694,32.9004701 28.6567627,32.9162398 L27.3999072,43.2849488 Z M67.1325977,31.217564 C66.7430139,31.3277544 66.3674688,31.4831616 66.0135205,31.6806578 L60.6609814,18.612232 C61.0506543,18.5027468 61.4262416,18.3476571 61.7800586,18.1501363 L67.1325977,31.217564 Z M54.6611816,10.9851578 C54.4627997,11.3433966 54.3070942,11.723955 54.1972949,12.118939 L41.4324805,6.82929061 C41.6230888,6.4699416 41.7714498,6.0894473 41.8745605,5.69550936 L54.6611816,10.9851578 Z M32.1973682,6.79435897 L19.2253906,12.1329117 C19.1175021,11.7403985 18.964481,11.3619066 18.7694336,11.0051187 L31.7612354,5.65858163 C31.8629148,6.05274882 32.0092527,6.43384218 32.1973682,6.79435897 Z M12.7745898,18.6262047 L7.47359375,31.6736715 C7.11933176,31.4771055 6.74341163,31.3230206 6.35352539,31.2145699 L11.6545215,18.1671031 C12.0087835,18.3636691 12.3847036,18.5177539 12.7745898,18.6262047 Z M12.7735986,53.8213297 C12.3839258,53.9308149 12.0083385,54.0859046 11.6545215,54.2834254 L6.36740234,41.3637086 C6.75673328,41.2537028 7.13197094,41.0982852 7.48548828,40.9006148 L12.7735986,53.8213297 Z M18.7704248,61.4583844 C18.9672232,61.102542 19.1219165,60.724698 19.2313379,60.3325875 L32.130957,65.7060719 C31.9343224,66.0619938 31.7796373,66.439818 31.6700439,66.8318687 L18.7704248,61.4583844 Z M26.1698145,52.4669801 C23.9447069,52.4642294 22.1417354,50.6483772 22.1395508,48.4079234 C22.1395508,46.7660975 23.1218418,45.285955 24.6283402,44.6577487 C26.1348386,44.0295424 27.868831,44.377001 29.0216838,45.53809 C30.1745366,46.699179 30.519189,48.4452153 29.894915,49.9619488 C29.270641,51.4786823 27.800395,52.4673838 26.1698145,52.4669801 Z M49.1996094,27.3052203 C54.3169165,27.3107211 58.4639509,31.4863557 58.4694141,36.6389547 C58.4694141,40.4140978 56.2108987,43.8175161 52.7470101,45.2622008 C49.2831214,46.7068856 45.2960132,45.9083309 42.6448676,43.2389015 C39.9937221,40.5694722 39.2006369,36.5548667 40.6354266,33.0670892 C42.0702162,29.5793117 45.4503234,27.3052203 49.1996094,27.3052203 Z M54.2359521,36.667898 C54.2384708,36.6583699 54.2404564,36.6487069 54.2418994,36.6389547 C54.2375867,33.9881542 52.2082631,31.7870215 49.583208,31.5858433 C49.4573242,31.5758629 49.3304492,31.5658824 49.2015918,31.5658824 C49.038042,31.5658824 48.8774658,31.5758629 48.7178809,31.5908336 C47.319778,31.7288306 46.04227,32.4479598 45.1932583,33.5748988 C44.3442466,34.7018378 44.0007427,36.1343649 44.2455371,37.5272164 C44.6896392,39.9368767 46.7676635,41.691526 49.2015918,41.7120269 C49.4130878,41.7105558 49.6242901,41.6958896 49.8339844,41.6681129 C52.3373139,41.3454732 54.2181755,39.2089941 54.2359521,36.667898 Z M29.029458,31.7195816 C25.2456171,31.7195816 22.178208,28.631018 22.178208,24.8210816 C22.178208,21.0111453 25.2456171,17.9225816 29.029458,17.9225816 C32.8132989,17.9225816 35.880708,21.0111453 35.880708,24.8210816 C35.880708,28.631018 32.8132989,31.7195816 29.029458,31.7195816 Z M59.2415674,17.5982164 C57.0180051,17.5954709 55.2156716,15.7820465 55.2113037,13.5431519 C55.2096997,11.9009636 56.190973,10.4195963 57.6973438,9.79013186 C59.2037146,9.16066741 60.938357,9.50713993 62.0920321,10.6679144 C63.2457073,11.8286888 63.5910869,13.575038 62.9670459,15.0922617 C62.3430049,16.6094855 60.8725086,17.5986194 59.2415674,17.5982164 Z M14.1959863,54.8363433 C16.42016,54.8390929 18.2225281,56.6538911 18.2252588,58.8934039 C18.2256597,60.534917 17.2438644,62.0150018 15.7377682,62.6433681 C14.2316719,63.2717345 12.4979434,62.9246076 11.3451685,61.7638826 C10.1923936,60.6031575 9.84764433,58.8574722 10.4717068,57.3409891 C11.0957692,55.8245059 12.5657165,54.8359397 14.1959863,54.8363433 Z M59.2167871,62.9514625 C56.9909339,62.9514625 55.1865234,61.1346078 55.1865234,58.8934039 C55.1865234,56.6522 56.9909339,54.8353453 59.2167871,54.8353453 C61.4426403,54.8353453 63.2470508,56.6522 63.2470508,58.8934039 C63.2470508,61.1346078 61.4426403,62.9514625 59.2167871,62.9514625 Z M68.5549854,40.3486949 C66.3291322,40.3486949 64.5247217,38.5318402 64.5247217,36.2906363 C64.5247217,34.0494324 66.3291322,32.2325777 68.5549854,32.2325777 C70.7808385,32.2325777 72.585249,34.0494324 72.585249,36.2906363 C72.585249,38.5318402 70.7808385,40.3486949 68.5549854,40.3486949 Z M36.825332,8.38424764 C34.600611,8.38149808 32.7977991,6.56625303 32.7950684,4.32618905 C32.7946675,2.68427231 33.7767042,1.20382356 35.2831709,0.575302746 C36.7896375,-0.0532180711 38.5237924,0.293994154 39.6768508,1.45500465 C40.8299092,2.61601514 41.1747432,4.36212976 40.5505273,5.87898582 C39.9263115,7.39584189 38.4560028,8.38465131 36.825332,8.38424764 Z M14.1831006,17.6081969 C11.9583795,17.6054473 10.1555676,15.7902022 10.1528369,13.5501383 C10.1528369,11.9088068 11.1347791,10.4290914 12.6407855,9.80098099 C14.1467918,9.17287062 15.88028,9.52006089 17.0329274,10.6806575 C18.1855747,11.8412541 18.5303869,13.5866975 17.9065787,15.1030901 C17.2827705,16.6194826 15.8131901,17.6081969 14.1831006,17.6081969 Z M5.86903908,40.2418087 C3.7027072,40.7566357 1.53205705,39.405715 1.02075627,37.2244429 C0.509455499,35.0431708 1.8511233,32.8575507 4.01745518,32.3427237 C6.18378707,31.8278967 8.35443722,33.1788174 8.86573799,35.3600895 C9.37703876,37.5413616 8.03537096,39.7269817 5.86903908,40.2418087 Z M36.7063867,64.2129937 C38.849905,64.2169133 40.615539,65.9091727 40.7250557,68.0646585 C40.8345725,70.2201444 39.2496694,72.0849953 37.1177393,72.30915 C36.9819434,72.3221246 36.8451562,72.330109 36.7063867,72.330109 C35.2512705,72.3530856 33.8968154,71.5845933 33.1625902,70.3194258 C32.4283649,69.0542582 32.4283649,67.4888445 33.1625902,66.2236769 C33.8968154,64.9585094 35.2512705,64.1900172 36.7063867,64.2129937 Z" id="Combined-Shape"></path>
            </g>
        </g>
    </g>
</svg>

<svg width="73" height="73" viewBox="0 0 73 73" xmlns="http://www.w3.org/2000/svg"><title>Combined Shape</title><defs><linearGradient x1="-77.328%" y1="50%" x2="114.807%" y2="50%" id="a"><stop stop-color="#00DDBD" offset="0%"/><stop stop-color="#5392FF" offset="100%"/></linearGradient></defs><path d="M60.656 53.825L66 40.89c.352.2.727.357 1.116.47l-5.344 12.932a5.199 5.199 0 0 0-1.116-.467zM41.281 65.706l12.9-5.373c.11.392.264.77.46 1.125l-12.898 5.373a5.277 5.277 0 0 0-.462-1.125zm-6.492-2.34c-.376.15-.734.345-1.066.579l-5.636-10.63a5.174 5.174 0 0 0 1.065-.575l5.637 10.627zm19.65-6.626c-.166.37-.29.76-.366 1.16l-23.126-7.336c.167-.371.29-.761.366-1.161L54.44 56.74zm-32.59-5.354c.227.335.493.642.791.915l-4.128 3.615a5.298 5.298 0 0 0-.793-.915l4.13-3.615zM9.167 39.402c.24-.328.443-.682.602-1.056l12.177 6.953c-.24.327-.443.68-.602 1.055L9.168 39.402zM22.255 20.44l-4.285-3.253c.278-.295.523-.621.728-.972l4.287 3.255a8.094 8.094 0 0 0-.73.97zm-.743 7.287c.144.38.317.747.517 1.1L9.904 34.602a5.24 5.24 0 0 0-.52-1.098l12.128-5.777zm14.836-6.287l17.809-6.65c.095.395.236.778.42 1.14L36.77 22.58a8.034 8.034 0 0 0-.423-1.14zM34.4 8.998c.358.188.738.334 1.13.433l-3.066 8.06a7.858 7.858 0 0 0-1.126-.443l3.062-8.05zm23.218 44.873a5.212 5.212 0 0 0-1.098.511l-3.558-7.903c.377-.145.745-.311 1.102-.5l3.554 7.892zM35.668 29.412c.227-.336.43-.688.604-1.055l4.196 2.458c-.222.34-.424.692-.605 1.055l-4.195-2.458zm-4.589 17.171a5.31 5.31 0 0 0-.545-1.087l9.069-4.634c.163.37.348.732.553 1.082l-9.077 4.64zm32.328-9.335h-3.76c.012-.203.03-.4.03-.609 0-.21-.018-.41-.03-.609h3.682c-.005.087-.014.173-.014.26.002.322.032.642.092.958zm-5.698-18.664l-3.764 8.66a10.37 10.37 0 0 0-1.109-.488l3.767-8.666c.348.208.72.373 1.106.494zm-30.31 24.7a5.22 5.22 0 0 0-1.198-.149l1.254-10.356c.397.075.798.121 1.202.137L27.4 43.285zm39.734-12.066c-.39.11-.766.265-1.12.463l-5.352-13.069c.39-.11.765-.264 1.12-.462l5.352 13.068zM54.66 10.985a5.234 5.234 0 0 0-.464 1.134l-12.765-5.29c.191-.36.34-.74.443-1.133l12.786 5.29zm-22.464-4.19l-12.972 5.338a5.254 5.254 0 0 0-.456-1.128L31.761 5.66c.102.394.248.775.436 1.135zM12.775 18.625L7.474 31.674a5.157 5.157 0 0 0-1.12-.46l5.3-13.047c.355.197.73.35 1.12.46zm-.001 35.195c-.39.11-.766.265-1.12.462l-5.287-12.92c.39-.11.765-.265 1.118-.462l5.289 12.92zm5.996 7.637c.197-.355.352-.733.461-1.125l12.9 5.373a5.252 5.252 0 0 0-.461 1.126l-12.9-5.374zm7.4-8.991c-2.225-.003-4.028-1.819-4.03-4.06a4.06 4.06 0 0 1 2.488-3.75 4.011 4.011 0 0 1 4.394.881 4.08 4.08 0 0 1 .873 4.424 4.031 4.031 0 0 1-3.725 2.505zM49.2 27.305c5.117.006 9.264 4.181 9.27 9.334 0 3.775-2.26 7.179-5.723 8.623a9.224 9.224 0 0 1-10.102-2.023 9.38 9.38 0 0 1-2.01-10.172 9.27 9.27 0 0 1 8.565-5.762zm5.036 9.363a.265.265 0 0 0 .006-.029c-.004-2.65-2.034-4.852-4.659-5.053a4.81 4.81 0 0 0-.381-.02 5.033 5.033 0 0 0-4.008 2.009 5.103 5.103 0 0 0-.948 3.952c.444 2.41 2.522 4.165 4.956 4.185.211-.001.422-.016.632-.044 2.503-.323 4.384-2.459 4.402-5zM29.029 31.72c-3.783 0-6.85-3.089-6.85-6.899s3.067-6.898 6.85-6.898c3.784 0 6.852 3.088 6.852 6.898 0 3.81-3.068 6.899-6.852 6.899zm30.213-14.122c-2.224-.003-4.026-1.816-4.03-4.055a4.06 4.06 0 0 1 2.485-3.753 4.011 4.011 0 0 1 4.395.878 4.08 4.08 0 0 1 .875 4.424 4.031 4.031 0 0 1-3.725 2.506zM14.196 54.836c2.224.003 4.027 1.818 4.03 4.057a4.058 4.058 0 0 1-2.488 3.75 4.01 4.01 0 0 1-4.393-.88 4.079 4.079 0 0 1-.873-4.422 4.03 4.03 0 0 1 3.724-2.505zm45.02 8.115c-2.225 0-4.03-1.816-4.03-4.058 0-2.24 1.805-4.058 4.03-4.058 2.227 0 4.031 1.817 4.031 4.058 0 2.242-1.804 4.058-4.03 4.058zm9.339-22.602c-2.226 0-4.03-1.817-4.03-4.058 0-2.242 1.804-4.058 4.03-4.058s4.03 1.816 4.03 4.058c0 2.24-1.804 4.058-4.03 4.058zM36.825 8.384c-2.224-.003-4.027-1.818-4.03-4.058a4.06 4.06 0 0 1 2.488-3.75 4.011 4.011 0 0 1 4.394.879 4.08 4.08 0 0 1 .874 4.424 4.031 4.031 0 0 1-3.726 2.505zm-22.642 9.224c-2.225-.003-4.027-1.818-4.03-4.058 0-1.641.982-3.12 2.488-3.749a4.01 4.01 0 0 1 4.392.88 4.079 4.079 0 0 1 .874 4.422 4.03 4.03 0 0 1-3.724 2.505zM5.87 40.242c-2.166.515-4.337-.836-4.848-3.018-.512-2.18.83-4.366 2.996-4.881 2.167-.515 4.337.836 4.849 3.017.511 2.181-.83 4.367-2.997 4.882zm30.837 23.971c2.144.004 3.91 1.696 4.02 3.852.109 2.155-1.476 4.02-3.608 4.244a4.316 4.316 0 0 1-.412.021 4.026 4.026 0 0 1-3.543-2.01 4.083 4.083 0 0 1 0-4.096 4.026 4.026 0 0 1 3.543-2.011z" fill="url(#a)" fill-rule="evenodd"/></svg>
